src/24/panel/keybase-uploading.svg

<svg xmlns="http://www.w3.org/2000/svg" width="24" height="24" version="1.1">
 <defs>
  <style id="current-color-scheme" type="text/css">
   .ColorScheme-Text { color:#dfdfdf; } .ColorScheme-Highlight { color:#4285f4; }
  </style>
 </defs>
 <path style="fill:currentColor" class="ColorScheme-Text" d="M 10.33749,4 C 10.29135,4 9.9894903,4.5097587 9.7027248,5.0722656 9.2829251,5.8957293 9.0819545,6.5282129 9.0132717,7.2597656 8.9963027,7.44054 8.9999424,7.6184414 9.0113186,7.7929688 c -0.00708,0.078624 -0.010999,0.157397 -0.011719,0.2363281 0,0.3216121 0.06468,0.625957 0.1601562,0.9160156 C 7.8946987,9.509545 6.8233518,10.430382 6.0874904,11.589844 5.9064301,11.826602 5.7464153,12.073389 5.6304592,12.337891 5.4482473,12.753525 5.3131038,13.183712 5.2105373,13.648438 5.1422893,13.924193 5.084848,14.20267 5.050381,14.490234 c -0.00307,0.0256 0.00501,0.03097 0.017578,0.02734 C 5.054804,14.628337 5.037176,14.733603 5.026943,14.849605 4.994138,15.221494 4.990199,15.374998 5.015225,15.375 L 8.9995998,11 l -1.03125,3.455078 c 0.00607,0.0061 0.1375376,-0.04757 0.2929688,-0.11914 0.9549601,-0.439703 2.1451294,-1.206465 3.1972654,-1.332032 0.36284,-0.0433 1.621735,-0.04747 2,-0.0078 0.37305,0.03909 0.729972,0.199432 1.097657,0.380859 C 15.485087,12.493536 16.717743,12.000626 17.9996,12 c 0.04691,0.0019 0.09379,0.0045 0.140625,0.0078 -0.01597,-0.05208 -0.04136,-0.111494 -0.08594,-0.189453 -0.09589,-0.254803 -0.237999,-0.510365 -0.451172,-0.798828 C 16.812528,10.150774 15.884994,9.42878 14.837491,8.9492188 14.933832,8.6579794 14.9996,8.3524242 14.9996,8.0292969 14.999574,7.9537899 14.9975,7.8780222 14.9918,7.8027344 14.9944,7.7274754 15.0016,7.6521806 14.9977,7.578125 14.944473,6.5609826 14.349928,5.8631388 13.452725,5.4042969 12.977718,5.1613714 12.251068,5.0478117 11.776944,5.046875 11.185451,5.045709 10.735951,4.537145 10.446865,4.1210938 10.40059,4.0544931 10.351279,3.9999994 10.33749,4 Z m 7.66211,9 c -2.2091,0 -4,1.7909 -4,4 0,2.2091 1.7909,4 4,4 2.2091,0 4,-1.7909 4,-4 0,-2.2091 -1.7909,-4 -4,-4 z m -4.644531,0.990234 c -0.142321,-0.01491 -1.677283,-0.0061 -1.777344,0.0059 -0.664602,0.07932 -1.8290215,0.755645 -2.8984377,1.248047 -0.088747,0.04086 -0.1700516,0.07725 -0.2441406,0.107421 -0.037045,0.01508 -0.068655,0.0278 -0.1191407,0.04492 -0.025243,0.0086 -0.0507,0.01801 -0.1171874,0.0332 -0.033244,0.0076 -0.072608,0.01784 -0.171875,0.02344 -0.049633,0.0028 -0.2280842,-0.01164 -0.2285157,-0.01172 C 7.7982122,15.44133 7.5778805,15.37507 7.5777248,15.375 7.5775691,15.374934 7.2594603,15.160252 7.2593654,15.160156 7.1297036,15.029833 7.0384719,14.866291 6.9956936,14.6875 L 5.7554592,16.048828 C 5.5831355,16.238164 5.3447637,16.354204 5.0894436,16.373047 5.291606,17.722159 5.883571,18.9828 6.7925686,20 l 7.2148434,0 c -0.651899,-0.864502 -1.005559,-1.917257 -1.007812,-3 3.68e-4,-1.000863 0.3011,-1.978583 0.863281,-2.806641 -0.212687,-0.105355 -0.393279,-0.191123 -0.507812,-0.203125 z M 17.9996,14 l 2.5,3 -1.5,0 0,2 -2,0 0,-2 -1.5,0 z m -9.0000002,2 c 0.5522847,0 1,0.447715 1,1 0,0.552285 -0.4477153,1 -1,1 -0.5522847,0 -1,-0.447715 -1,-1 0,-0.552285 0.4477153,-1 1,-1 z"/>
</svg>

<svg xmlns="http://www.w3.org/2000/svg" width="24" height="24"><defs><style id="current-color-scheme" type="text/css"></style></defs><path d="M10.337 4c-.046 0-.348.51-.634 1.072-.42.824-.621 1.456-.69 2.188-.017.18-.013.358-.002.533A2.932 2.932 0 0 0 9 8.029c0 .322.064.626.16.916a7.027 7.027 0 0 0-3.073 2.645 3.671 3.671 0 0 0-.457.748 6.966 6.966 0 0 0-.42 1.31 6.922 6.922 0 0 0-.16.842c-.003.026.005.031.018.028-.013.11-.03.216-.041.332-.033.371-.037.525-.012.525L9 11l-1.032 3.455c.006.006.138-.047.293-.12.955-.439 2.145-1.206 3.198-1.331.362-.043 1.621-.048 2-.008.373.04.73.2 1.097.381A5 5 0 0 1 18 12c.047.002.093.004.14.008a.927.927 0 0 0-.086-.19 3.278 3.278 0 0 0-.45-.798c-.791-.87-1.719-1.591-2.767-2.07a2.915 2.915 0 0 0 .155-1.147c.002-.076.01-.15.006-.225-.054-1.017-.648-1.715-1.545-2.174-.475-.243-1.202-.356-1.676-.357-.592-.001-1.041-.51-1.33-.926C10.4 4.054 10.35 4 10.337 4zM18 13a4 4 0 1 0 0 8 4 4 0 0 0 0-8zm-4.645.99a38.92 38.92 0 0 0-1.777.006c-.665.08-1.83.756-2.899 1.248-.088.041-.17.077-.244.108a1.896 1.896 0 0 1-.119.045c-.025.008-.05.018-.117.033-.033.007-.073.018-.172.023a3.152 3.152 0 0 1-.229-.012l-.22-.066-.319-.215a1 1 0 0 1-.263-.473l-1.24 1.362a1 1 0 0 1-.667.324A7 7 0 0 0 6.793 20h7.214A5 5 0 0 1 13 17a5 5 0 0 1 .863-2.807c-.213-.105-.393-.19-.508-.203zM18 14l2.5 3H19v2h-2v-2h-1.5zm-9 2a1 1 0 1 1 0 2 1 1 0 0 1 0-2z" fill="currentColor" color="#bebebe"/></svg>
